!!!COM: Bach, Johann Sebastian
!!!CDT: 1685/02/21/-1750/07/28/
!!!OTL@@DE: Nun ruhen alle W&auml;lder
!!!SCT: BWV 245/11
!!!PC#: 63
!!!AGN: chorale
**harm	**kern	**kern	**kern	**kern
*	*ICvox	*ICvox	*ICvox	*ICvox
*	*Ibass	*Itenor	*Ialto	*Isoprn
*	*I"Bass	*I"Tenor	*I"Alto	*I"Soprano
*	*	*oclefC4	*oclefC3	*oclefC1
*	*clefF4	*clefGv2	*clefG2	*clefG2
*k[f#c#g#]	*k[f#c#g#]	*k[f#c#g#]	*k[f#c#g#]	*k[f#c#g#]
*A:	*A:	*A:	*A:	*A:
*M4/4	*M4/4	*M4/4	*M4/4	*M4/4
*met(c)	*met(c)	*met(c)	*met(c)	*met(c)
*MM100	*MM100	*MM100	*MM100	*MM100
I	4A	4e	4a	4cc#
=1	=1	=1	=1	=1
IV	4d	4d	4f#	4a
viio6	4B	4d	4g#	4b
I	4A	4e	4a	4cc#
I	8AL	8AL	8cc#L	8eeL
V2/IV	8GJ	8AJ	8cc#J	8eeJ
=2	=2	=2	=2	=2
IV65	4F#	4A	4cc#	4dd
ii64	4F#	4B	4b	4dd
V6/vi;	4E#;	4c#;	4g#X;	4cc#;
vi	4F#	4f#	4a	4cc#
=3	=3	=3	=3	=3
I6	4C#	4e	4a	4ee
I6	4C#	4e	4a	4ee
V	4E	4e	4g#	4b
I	4AA	4e	4a	4cc#
=4	=4	=4	=4	=4
ii7	4BB	4d	4f#	4a
viio7/iii	4BB#	4d#	4f#	4a
iii;	4C#;	4G#;	4e;	4g#;
V2	4D	4G#	4B	4e
=5	=5	=5	=5	=5
I6	4C#	4A	4e	4a
ii	8BBnXL	8dnXL	8f#L	8bL
viio6	8BBJ	8dJ	8g#J	8bJ
I	8AAL	8eL	8aL	8cc#L
I	8AAJ	8AJ	8cc#J	8eeJ
ii65	4D	4A	4b	4dd
=6	=6	=6	=6	=6
V;	2.E;	2.e;	2.g#;	2.b;
V6/vi	4E#	4c#	4g#	4cc#
=7	=7	=7	=7	=7
vi	4F#	4c#	4f#	4a
V6	4G#	4B	4enX	4b
I	4A	4A	4e	4cc#
b:V65	4A#	4c#	4f#	4ee
=8	=8	=8	=8	=8
i	4B	4B	4f#	4dd
viio43/V	4B	4G#	4e#	4dd
V;	4F#;	4A#;	4f#;	4cc#;
v	4F#	4AnX	4f#	4cc#
=9	=9	=9	=9	=9
A:I6	4C#	4A	4enX	4ee
I6	4C#	4A	4a	4ee
E:V65	4D#	4A	4f#	4b
vi6	4E	4G#	4e	4cc#
=10	=10	=10	=10	=10
ii2	4E	4c#	4f#	4a
V65	4D#	4B	4f#	4a
I;	4E;	4B;	4e;	4g#;
vi	4C#	4c#	4e	4e
=11	=11	=11	=11	=11
ii7	4F#	4c#	4e	4a
A:ii64	8F#L	8BL	8dnXL	8bL
viio	8G#J	8BJ	8dJ	8bJ
I	4A	4e	4c#	4cc#
I6	8C#L	8eL	8aL	8eeL
IV	8DJ	8f#	8aJ	8ddJ
=12	=12	=12	=12	=12
V(64)	4E	4e	4a	4cc#
V7	4E	4d	4g#	4b
I;	4AA;	4c#;	4e;	4a;
==	==	==	==	==
*-	*-	*-	*-	*-
!!!YOR1: 371 vierstimmige Choralges&auml;nge von Johann Sebastian Bach, 
!!!YOR2: 4th ed. by Alfred D&ouml;rffel (Leipzig: Breitkopf und H&auml;rtel, 
!!!YOR2: c.1875). 178 pp. Plate "V.A.10".  reprint: J.S. Bach, 371 Four-Part 
!!!YOR4: Chorales (New York: Associated Music Publishers, Inc., c.1940).
!!!SMS: B&H, 4th ed, Alfred D&ouml;rffel, c.1875, plate V.A.10
!!!EED:  Craig Stuart Sapp
!!!EEV:  2009/05/22
